X:19021
T:Speed the Plough
R:Reel
C:Trad.
O:England
M:4/4
L:1/8
Q:1/4=120
K:G
"G"GABc dedB|dedB dedB|"C"c2ec "G"B2dB|"D"c2A2 A4|
"G"GABc dedB|dedB dedB|"C"c2ec "G"B2dB|"D"A2F2 "G"G4:|
|:"G"g2g2 gdBd|g2fe d2B2|"C"c2ec "G"B2dB|"D"c2A2 A4|
"G"g2g2 gdBd|g2fe d2B2|"C"c2ec "G"B2dB|"D"A2F2 "G"G4:|

